X:1
T:Easter Dawn, 77.77
T:Easter Dawn, 77.77
T:Charles Ainslie Barry (1830-1915)
T:Public Domain Courtesy of the Cyber Hymnal™
C:Charles Ainslie Barry (1830-1915)
Z:Public Domain
Z:Courtesy of the Cyber Hymnal™
%%score ( 1 2 ) 3
L:1/8
Q:1/4=108
M:2/2
K:G
V:1 treble 
V:2 treble 
V:3 bass 
V:1
 [GB]3 [Ac] [Bd]2 [ce]2 | [Bd]2 [Ac]2 [GB]4 | [FA]3 [GB] [Ac]2 [Bd]2 | [Ac]2 [GB]2 [FA]4 | %4
 [Ec]3 [Ec] [^DB]2 [DA]2 | [EG]2 [FA]2 [^DB]3 B | d2 B2 A2 G2 | E3 z G [B,G]4 |] %8
V:2
 x8 | x8 | x8 | x8 | x8 | x7 B | d2 B2 A2 G2 | E2 C2 x5 |] %8
V:3
 [G,D]8 | [G,D]8 | [D,D]8 | [D,D]8 | A,4 B,4 | C4 B,3 B, | D2 B,2 A,2 G,2 | %7
 E,2 [C,G,]2 [G,,D,G,]4 x |] %8

